X: 12
T:Flowing Tide
R:hornpipe
S:Boys of the Lough
M:C|
L:1/8
K:G
D|~G3B dGBd|GBdg bgag|(3efg dg Bdge|dBAG edBA|
~G3B dGBd|GBdg bgag|(3efg dg Bdge|dBAB G3:|
D|GFGB AGED|gfge dBAG|(3cde Bd ABGB|cABG AG (3EFG|
DGBd B3d|cABG AG (3EFG|DGBd gdBG|DGFA G3:|

